X: 1
T: Senpolska fr\aan Torp #2
R: Polska
O: efter N.Olsson
M: 3/4
L: 1/8
B: Bygdedanser fr\aan Bohusl\"an, Dalanra, G\"astrikland, V\"armland och V\"asterg\"otland (1975)
K: A
(E \
| "A"A)>c e3 d | cB Ac Ec | "E7"dc TBA Gf | "A"ed cB A(E \
| "A"A)>c e3 d | cB Ac Ec | "E7"d>c Bg Bg | "A"{g}a2 a3 :|
|: c \
| "A"e>a c'2 c'2 | "E7"e>g b2 b>c | "E7"d>c BA GF | "A"ED CB, A,>c \
| "A"e>a c'2 c'2 | "E7"e>g {g}b2 b>c | "E7"d>c Bg Bg | "A"{g}a2 a3 :|
